packages/gestalt-icons-android/vr-theme/ic_vr_wave_gestalt.svg

<svg width="24" height="24" viewBox="0 0 24 24" fill="none" xmlns="http://www.w3.org/2000/svg">
<path d="M1 17.7563V19.8749C1.97245 19.6301 2.87635 19.0379 3.7071 18.2071C4.5981 17.3161 5.35875 17 5.99999 17C6.64123 17 7.40188 17.3161 8.29288 18.2071C9.40188 19.3161 10.6412 20 12 20C13.3587 20 14.5981 19.3161 15.7071 18.2071C16.5981 17.3161 17.3587 17 18 17C18.6412 17 19.4019 17.3161 20.2929 18.2071C21.1236 19.0379 22.0275 19.6301 23 19.8749V17.7563C22.6037 17.5678 22.1732 17.259 21.7071 16.7929C20.5981 15.6839 19.3587 15 18 15C16.6412 15 15.4019 15.6839 14.2929 16.7929C13.4019 17.6839 12.6412 18 12 18C11.3587 18 10.5981 17.6839 9.7071 16.7929C8.5981 15.6839 7.35875 15 5.99999 15C4.64123 15 3.40188 15.6839 2.29288 16.7929C1.82677 17.259 1.39633 17.5678 1 17.7563Z" fill="black"/>
<path d="M1 11.7563V13.8749C1.97245 13.6301 2.87635 13.0379 3.7071 12.2071C4.5981 11.3161 5.35875 11 5.99999 11C6.64123 11 7.40188 11.3161 8.29288 12.2071C9.40188 13.3161 10.6412 14 12 14C13.3587 14 14.5981 13.3161 15.7071 12.2071C16.5981 11.3161 17.3587 11 18 11C18.6412 11 19.4019 11.3161 20.2929 12.2071C21.1236 13.0379 22.0275 13.6301 23 13.8749V11.7563C22.6037 11.5678 22.1732 11.259 21.7071 10.7929C20.5981 9.6839 19.3587 9 18 9C16.6412 9 15.4019 9.6839 14.2929 10.7929C13.4019 11.6839 12.6412 12 12 12C11.3587 12 10.5981 11.6839 9.7071 10.7929C8.5981 9.6839 7.35875 9 5.99999 9C4.64123 9 3.40188 9.6839 2.29288 10.7929C1.82677 11.259 1.39633 11.5678 1 11.7563Z" fill="black"/>
<path d="M1 5.75629V7.87493C1.97245 7.63006 2.87635 7.03786 3.7071 6.20711C4.5981 5.3161 5.35875 5 5.99999 5C6.64123 5 7.40188 5.3161 8.29288 6.20711C9.40188 7.3161 10.6412 8 12 8C13.3587 8 14.5981 7.3161 15.7071 6.20711C16.5981 5.3161 17.3587 5 18 5C18.6412 5 19.4019 5.3161 20.2929 6.20711C21.1236 7.03786 22.0275 7.63007 23 7.87494V5.7563C22.6037 5.5678 22.1732 5.25901 21.7071 4.79289C20.5981 3.6839 19.3587 3 18 3C16.6412 3 15.4019 3.6839 14.2929 4.79289C13.4019 5.6839 12.6412 6 12 6C11.3587 6 10.5981 5.6839 9.7071 4.79289C8.5981 3.6839 7.35875 3 5.99999 3C4.64123 3 3.40188 3.6839 2.29288 4.79289C1.82677 5.25901 1.39633 5.56779 1 5.75629Z" fill="black"/>
</svg>

<svg xmlns="http://www.w3.org/2000/svg" width="24" height="24"><path d="M1 17.76v2.11a6 6 0 0 0 2.7-1.66C4.6 17.3 5.37 17 6 17s1.4.32 2.3 1.2C9.4 19.33 10.63 20 12 20s2.6-.68 3.7-1.8c.9-.88 1.66-1.2 2.3-1.2s1.4.32 2.3 1.2a6 6 0 0 0 2.7 1.67v-2.11q-.6-.28-1.3-.97C20.6 15.7 19.37 15 18 15s-2.6.68-3.7 1.8c-.9.88-1.66 1.2-2.3 1.2s-1.4-.32-2.3-1.2C8.6 15.67 7.37 15 6 15s-2.6.68-3.7 1.8q-.7.68-1.3.96m0-6v2.11a6 6 0 0 0 2.7-1.66C4.6 11.3 5.37 11 6 11s1.4.32 2.3 1.2C9.4 13.33 10.63 14 12 14s2.6-.68 3.7-1.8c.9-.88 1.66-1.2 2.3-1.2s1.4.32 2.3 1.2a6 6 0 0 0 2.7 1.67v-2.11q-.6-.28-1.3-.97C20.6 9.7 19.37 9 18 9s-2.6.68-3.7 1.8c-.9.88-1.66 1.2-2.3 1.2s-1.4-.32-2.3-1.2C8.6 9.67 7.37 9 6 9s-2.6.68-3.7 1.8q-.7.68-1.3.96m0-6v2.11a6 6 0 0 0 2.7-1.66C4.6 5.3 5.37 5 6 5s1.4.32 2.3 1.2C9.4 7.33 10.63 8 12 8s2.6-.68 3.7-1.8C16.6 5.33 17.37 5 18 5s1.4.32 2.3 1.2A6 6 0 0 0 23 7.88V5.76q-.6-.28-1.3-.97C20.6 3.7 19.37 3 18 3s-2.6.68-3.7 1.8C13.4 5.67 12.63 6 12 6s-1.4-.32-2.3-1.2C8.6 3.67 7.37 3 6 3s-2.6.68-3.7 1.8q-.7.68-1.3.96"/></svg>
